web/workspace/public/assets/icons/basketball.svg

<svg xmlns="http://www.w3.org/2000/svg" width="30" height="30" viewBox="0 0 30 30"><path d="M15 0C6.716 0 0 6.716 0 15s6.716 15 15 15 15-6.716 15-15S23.284 0 15 0zm7.063 16h5.887a12.917 12.917 0 0 1-2.421 6.605A9.951 9.951 0 0 1 22.063 16zm0-2a9.96 9.96 0 0 1 3.466-6.605A12.92 12.92 0 0 1 27.95 14h-5.887zm2.189-8.127A11.931 11.931 0 0 0 20.062 14H16V2.051a12.95 12.95 0 0 1 8.252 3.822zM14 2.051V14H9.938a11.935 11.935 0 0 0-4.19-8.127A12.95 12.95 0 0 1 14 2.051zM4.472 22.605A12.9 12.9 0 0 1 2.051 16h5.887a9.96 9.96 0 0 1-3.466 6.605zM2.051 14a12.917 12.917 0 0 1 2.421-6.605A9.96 9.96 0 0 1 7.938 14H2.051zm3.697 10.127A11.931 11.931 0 0 0 9.938 16H14v11.949a12.95 12.95 0 0 1-8.252-3.822zM16 27.949V16h4.062a11.935 11.935 0 0 0 4.19 8.127A12.95 12.95 0 0 1 16 27.949z"/></svg>

<?xml version="1.0" encoding="iso-8859-1"?>
<!-- Generator: Adobe Illustrator 14.0.0, SVG Export Plug-In . SVG Version: 6.00 Build 43363)  -->
<!DOCTYPE svg PUBLIC "-//W3C//DTD SVG 1.1//EN" "http://www.w3.org/Graphics/SVG/1.1/DTD/svg11.dtd">
<svg version="1.1" id="Layer_1" xmlns="http://www.w3.org/2000/svg" xmlns:xlink="http://www.w3.org/1999/xlink" x="0px" y="0px"
	 width="30px" height="30px" viewBox="0 0 30 30" style="enable-background:new 0 0 30 30;" xml:space="preserve">
<path d="M15,0C6.716,0,0,6.716,0,15s6.716,15,15,15s15-6.716,15-15S23.284,0,15,0z M22.063,16h5.887
	c-0.188,2.458-1.057,4.72-2.421,6.605C23.613,20.975,22.326,18.642,22.063,16z M22.063,14c0.264-2.642,1.551-4.975,3.466-6.605
	c1.364,1.886,2.233,4.147,2.421,6.605H22.063z M24.252,5.873c-2.353,1.996-3.919,4.871-4.19,8.127H16V2.051
	C19.221,2.297,22.114,3.706,24.252,5.873z M14,2.051V14H9.938c-0.271-3.256-1.838-6.131-4.19-8.127
	C7.886,3.706,10.779,2.297,14,2.051z M4.472,22.605C3.107,20.72,2.238,18.458,2.051,16h5.887
	C7.674,18.642,6.387,20.975,4.472,22.605z M2.051,14c0.188-2.458,1.057-4.72,2.421-6.605C6.387,9.025,7.674,11.358,7.938,14H2.051z
	 M5.748,24.127c2.353-1.996,3.919-4.871,4.19-8.127H14v11.949C10.779,27.703,7.886,26.294,5.748,24.127z M16,27.949V16h4.062
	c0.271,3.256,1.838,6.131,4.19,8.127C22.114,26.294,19.221,27.703,16,27.949z"/>
</svg>
